!!!!SEGMENT: pl-wnifc--13846--001-160_anonim--piesni-polskie-i-ruskie-ludu-galicyjskiego-160-stala-nam-sie-nowina.krn
!!!cenid: 18xx:3382
!!!COM: Anonim
!!!COM-rismID: pe30004985
!!!CDT:
!!!CNT:
!!!GTL: Pieśni polskie i ruskie ludu galicyjskiego
!!!OTL: 160. Stała nam się nowina
!!!OMV: 160
!!!PDT: 1833
!!!AGN:
!!!YEC: Copyright 2022 Narodowy Instytut Fryderyka Chopina (https://polishscores.org)
!!!YEM: License CC-BY-4.0 (https://creativecommons.org/licenses/by/4.0)
!!!SMS-siglum: PL-Wnifc
!!!SMS-shelfmark: 13846
!!!SMS-shelfwork: 001-160 G
!!!NIFC-rismSourceID: 1001036701
!!!NIFC-rismChildID: 1001039695
!!!NIFC-islandoraID: nifc:210326
!!!URL-pdf-islandora: https://repozytorium.nifc.pl/islandora/object/nifc%3A210326/datastream/PDF/view
!!!URL-scan:
!!!IIIF:
!!!ONB-nifc:
!!!OMD: Allegro moderato
!!!AIN: 1 piano 1 soprn
!!!key:
**kern	**kern	**dynam	**kern	**text
*group2	*group2	*	*group1	*
*part2	*part2	*	*part1	*
*staff3	*staff2	*	*staff1	*
*I"[Piano]	*I"[Piano]	*	*I"[Soprano]	*
*Ipiano	*Ipiano	*	*Isoprn	*
*ICklav	*ICklav	*	*ICvox	*
*IGacmp	*IGacmp	*	*IGsolo	*
*clefF4	*clefG2	*	*clefG2	*
*k[]	*k[]	*	*k[]	*
*C:	*C:	*	*C:	*
*M2/4	*M2/4	*	*M2/4	*
=1-	=1-	=1-	=1-	=1-
!	!	!	!LO:TX:b:B:rj:t=B.B.26.	!
4CC/ 4C/	8e/L 8cc/	.	8cc\	Sta-
.	8e/ 8g/	.	8g/	-&#322;a
4r	8e/ 8cc/	.	8cc\	nam
.	8f/J 8dd/	.	8dd\	si&#281;
=2	=2	=2	=2	=2
*^	*	*	*	*
!	!	!	!LO:DY:rj:b=2	!	!
4CC/ 4C/	4ryy	4g\ 4ee\	f	4ee\	no-
8qGG/	.	.	f	.	.
!	!	!	!LO:DY:b=2	!	!
4B/	4G\	4f\ 4dd\	f	4dd\	-wi-
=3	=3	=3	=3	=3	=3
4C/ 4G/ 4c/	4C\	4e/ 4cc/	f	4cc\;>	-na
4r;>	4ryy	4r;>	.	4r	.
*v	*v	*	*	*	*
!!LO:LB:g=original
=4	=4	=4	=4	=4
(>4C/	8cc\L 8ee\	.	8ee\	sta-
.	8b\ 8dd\	.	8dd\	-&#322;a
4c\)	8cc\ 8ee\	.	8ee\	nam
.	8dd\J 8ff\	.	8ff\	si&#281;
=5	=5	=5	=5	=5
(>4C/	4ee\ 4gg\	.	4gg\	no-
4c\)	8ff\L 8aa\	.	8aa\	-wi-
.	8ee\J 8gg\	.	8gg\	-na,
!!LO:LB:g=original
=6	=6	=6	=6	=6
(>4GG/	8dd\L 8ff\	.	8ff\	pa-
.	8cc\ 8ee\	.	8ee\	-ni
4G\)	8b\ 8dd\	.	8dd\	pa-
.	8cc\J 8ee\	.	8ee\	-na
=7	=7	=7	=7	=7
(>/4GG	4dd\ 4ff\	.	4ff\	za-
4G\)	8ee\L 8gg\	.	8gg\	-bi-
.	8dd\J 8ff\	.	8ff\	-&#322;a
=8	=8	=8	=8	=8
4C/	8cc\L 8ee\	.	8ee\	pa-
.	8g\ 8dd\	.	8dd\	-ni
4c\	8e\ 8cc\	.	8cc\	pa-
.	8g\J 8dd\	.	8dd\	-na
!!LO:LB:g=original
=9	=9	=9	=9	=9
*^	*	*	*	*
4GG/ 4G/	4ryy	4cc\ 4ee\	.	4ee\	za-
4B/	4G\	4g\ 4dd\	.	4dd\	-bi-
=10	=10	=10	=10	=10	=10
4C/ 4G/ 4c/	4C\	4e\ 4cc\	.	4cc\	-&#322;a.
4r	4ryy	4r	.	4r	.
*v	*v	*	*	*	*
==	==	==	==	==
*-	*-	*-	*-	*-
!!!system-decoration: g1,[{g2}]
!!!RDF**kern: > = above
!!!RDF**kern: < = below
!!!ENC: Jędrzej Mróz
!!!END: 2021-11-12
